Newaita-dark/apps/48/ntfs-config.svg

<svg height="48" viewBox="0 0 48 48" width="48" xmlns="http://www.w3.org/2000/svg" xmlns:xlink="http://www.w3.org/1999/xlink"><linearGradient id="a" gradientUnits="userSpaceOnUse" x1="23.81478" x2="23.81478" y1="42.0509045" y2="44.03547050005"><stop offset="0" stop-opacity=".27451"/><stop offset="1" stop-opacity="0"/></linearGradient><linearGradient id="b"><stop offset="0" stop-opacity=".313726"/><stop offset=".222222" stop-opacity=".27451"/><stop offset="1" stop-opacity="0"/></linearGradient><radialGradient id="c" cx="450.908936" cy="189.579361" gradientTransform="matrix(.00000026 -.117199 -.210958 -.00000015 73.234562 95.392999)" gradientUnits="userSpaceOnUse" r="21.166656" xlink:href="#b"/><radialGradient id="d" cx="450.908936" cy="189.579361" gradientTransform="matrix(-.00000026 .117199 .210958 .00000015 -25.605013 -11.291218)" gradientUnits="userSpaceOnUse" r="21.166656" xlink:href="#b"/><radialGradient id="e" cx="450.908936" cy="189.579361" gradientTransform="matrix(-.00000026 -.117199 .210958 -.00000015 -25.605013 95.392999)" gradientUnits="userSpaceOnUse" r="21.166656" xlink:href="#b"/><radialGradient id="f" cx="450.908936" cy="189.579361" gradientTransform="matrix(.00000026 .117199 -.210958 .00000015 73.234559 -11.291219)" gradientUnits="userSpaceOnUse" r="21.166656" xlink:href="#b"/><linearGradient id="g"><stop offset="0" stop-color="#bdbdbd"/><stop offset="1" stop-color="#e0e0e0"/></linearGradient><linearGradient id="h" gradientTransform="matrix(.113024 0 0 .326118 -8.78102 50.462022)" gradientUnits="userSpaceOnUse" x1="306.916656" x2="305.954559" xlink:href="#g" y1="-25.791676" y2="-141.414581"/><linearGradient id="i" gradientUnits="userSpaceOnUse" x1="23.81478631291" x2="23.81478631291" xlink:href="#g" y1="32.12807319001" y2="6.32872269011"/><path d="m13.890625 42.050781h19.847656v1.984375h-19.847656zm0 0" fill="url(#a)"/><path d="m33.738281 42.050781h3.96875v-1.984375h-3.96875zm0 0" fill="url(#c)"/><path d="m13.890625 42.050781h-3.96875v1.984375h3.96875zm0 0" fill="url(#d)"/><path d="m13.890625 42.050781h-3.96875v-1.984375h3.96875zm0 0" fill="url(#e)"/><path d="m33.738281 42.050781h3.96875v1.984375h-3.96875zm0 0" fill="url(#f)"/><path d="m11.90625 4.34375h23.816406c1.09375 0 1.984375.890625 1.984375 1.984375v33.738281c0 1.097656-.890625 1.984375-1.984375 1.984375h-23.816406c-1.09375 0-1.984375-.886719-1.984375-1.984375v-33.738281c0-1.09375.890625-1.984375 1.984375-1.984375zm0 0" fill="url(#h)"/><path d="m11.90625 42.050781c-1.097656 0-1.984375-.886719-1.984375-1.984375v-.25c0 1.101563.886719 1.988282 1.984375 1.988282h23.816406c1.097656 0 1.984375-.886719 1.984375-1.988282v.25c0 1.097656-.886719 1.984375-1.984375 1.984375zm0 0" fill-opacity=".196078"/><path d="m11.90625 4.480469c-1.097656 0-1.984375.882812-1.984375 1.984375v.246094c0-1.097657.886719-1.984376 1.984375-1.984376h23.816406c1.097656 0 1.984375.886719 1.984375 1.984376v-.246094c0-1.101563-.886719-1.984375-1.984375-1.984375zm0 0" fill="#fff" fill-opacity=".862745"/><path d="m11.90625 4.203125c-1.171875 0-2.125.949219-2.125 2.125v33.738281c0 1.175782.953125 2.125 2.125 2.125h23.816406c1.175782 0 2.125-.949218 2.125-2.125v-33.738281c0-1.175781-.949218-2.125-2.125-2.125zm0 .28125h23.816406c1.023438 0 1.84375.820313 1.84375 1.84375v33.738281c0 1.023438-.820312 1.84375-1.84375 1.84375h-23.816406c-1.023438 0-1.84375-.820312-1.84375-1.84375v-33.738281c0-1.023437.820312-1.84375 1.84375-1.84375zm0 0" fill="#212121"/><g fill="#bdbdbd" fill-opacity=".392157"><path d="m12.898438 6.328125c.550781 0 .992187.445313.992187.992187 0 .546876-.441406.992188-.992187.992188-.546876 0-.992188-.445312-.992188-.992188 0-.546874.445312-.992187.992188-.992187zm0 0"/><path d="m34.730469 6.328125c.546875 0 .992187.445313.992187.992187 0 .546876-.445312.992188-.992187.992188s-.992188-.445312-.992188-.992188c0-.546874.445313-.992187.992188-.992187zm0 0"/><path d="m34.730469 38.082031c.546875 0 .992187.445313.992187.992188s-.445312.992187-.992187.992187-.992188-.445312-.992188-.992187.445313-.992188.992188-.992188zm0 0"/><path d="m12.898438 38.082031c.550781 0 .992187.445313.992187.992188s-.441406.992187-.992187.992187c-.546876 0-.992188-.445312-.992188-.992187s.445312-.992188.992188-.992188zm0 0"/></g><path d="m14.882812 33.121094h17.863282c.546875 0 .992187.445312.992187.992187v.992188c0 .546875-.445312.992187-.992187.992187h-17.863282c-.546874 0-.992187-.445312-.992187-.992187v-.992188c0-.546875.445313-.992187.992187-.992187zm0 0" fill-opacity=".235294"/><path d="m14.882812 33.121094c-.546874 0-.992187.441406-.992187.992187v.496094c0-.550781.445313-.992187.992187-.992187h17.863282c.550781 0 .992187.441406.992187.992187v-.496094c0-.550781-.441406-.992187-.992187-.992187zm0 0" fill-opacity=".235294"/><path d="m14.882812 36.59375c-.546874 0-.992187-.441406-.992187-.992188v-.496093c0 .550781.445313.992187.992187.992187h17.863282c.550781 0 .992187-.441406.992187-.992187v.496093c0 .550782-.441406.992188-.992187.992188zm0 0" fill="#fff" fill-opacity=".470588"/><path d="m158.734842 138.257932h190.523472c5.832776 0 10.582323 4.749547 10.582323 10.582323v10.582323c0 5.832776-4.749547 10.582323-10.582323 10.582323h-190.523472c-5.832777 0-10.582323-4.749547-10.582323-10.582323v-10.582323c0-5.832776 4.749546-10.582323 10.582323-10.582323zm0 0" fill="none" stroke="#212121" stroke-linecap="round" stroke-width="3" transform="matrix(.093759 0 0 .093759 0 20.158175)"/><path d="m12.898438 6.453125c-.546876 0-.992188.441406-.992188.992187 0 .042969.003906.082032.007812.125.0625-.492187.476563-.871093.984376-.871093.507812 0 .925781.378906.984374.871093.007813-.042968.007813-.082031.007813-.125 0-.550781-.441406-.992187-.992187-.992187zm21.832031 0c-.550781 0-.992188.441406-.992188.992187 0 .042969.003907.082032.007813.125.058594-.492187.476562-.871093.984375-.871093.507812 0 .921875.378906.984375.871093.003906-.042968.007812-.082031.007812-.125 0-.550781-.441406-.992187-.992187-.992187zm-21.832031 31.753906c-.546876 0-.992188.441407-.992188.992188 0 .039062.003906.082031.007812.121093.0625-.488281.476563-.867187.984376-.867187.507812 0 .925781.378906.984374.867187.007813-.039062.007813-.082031.007813-.121093 0-.550781-.441406-.992188-.992187-.992188zm21.832031 0c-.550781 0-.992188.441407-.992188.992188 0 .039062.003907.082031.007813.121093.058594-.488281.476562-.867187.984375-.867187.507812 0 .921875.378906.984375.867187.003906-.039062.007812-.082031.007812-.121093 0-.550781-.441406-.992188-.992187-.992188zm0 0" fill="#fff" fill-opacity=".392157"/><path d="m12.898438 40.4375c-.546876 0-.992188-.441406-.992188-.992188 0-.042968.003906-.082031.007812-.125.0625.492188.476563.871094.984376.871094.507812 0 .925781-.378906.984374-.871094.007813.042969.007813.082032.007813.125 0 .550782-.441406.992188-.992187.992188zm21.832031 0c-.550781 0-.992188-.441406-.992188-.992188 0-.042968.003907-.082031.007813-.125.058594.492188.476562.871094.984375.871094.507812 0 .921875-.378906.984375-.871094.003906.042969.007812.082032.007812.125 0 .550782-.441406.992188-.992187.992188zm-21.832031-31.753906c-.546876 0-.992188-.441406-.992188-.992188 0-.039062.003906-.082031.007812-.121094.0625.488282.476563.867188.984376.867188.507812 0 .925781-.378906.984374-.867188.007813.039063.007813.082032.007813.121094 0 .550782-.441406.992188-.992187.992188zm21.832031 0c-.550781 0-.992188-.441406-.992188-.992188 0-.039062.003907-.082031.007813-.121094.058594.488282.476562.867188.984375.867188.507812 0 .921875-.378906.984375-.867188.003906.039063.007812.082032.007812.121094 0 .550782-.441406.992188-.992187.992188zm0 0" fill-opacity=".235294"/><path d="m137.570196-147.506445c5.874439 0 10.582323 4.749546 10.582323 10.582322 0 5.832777-4.707884 10.582323-10.582323 10.582323-5.832776 0-10.582323-4.749546-10.582323-10.582323 0-5.832776 4.749547-10.582322 10.582323-10.582322zm0 0" fill="none" stroke="#212121" stroke-linecap="round" stroke-width="2.999999" transform="matrix(.093759 0 0 .093759 0 20.158175)"/><path d="m370.42296-147.506445c5.832776 0 10.582322 4.749546 10.582322 10.582322 0 5.832777-4.749546 10.582323-10.582322 10.582323-5.832777 0-10.582323-4.749546-10.582323-10.582323 0-5.832776 4.749546-10.582322 10.582323-10.582322zm0 0" fill="none" stroke="#212121" stroke-linecap="round" stroke-width="3" transform="matrix(.093759 0 0 .093759 0 20.158175)"/><path d="m370.42296 191.169546c5.832776 0 10.582322 4.749547 10.582322 10.582323s-4.749546 10.582323-10.582322 10.582323c-5.832777 0-10.582323-4.749547-10.582323-10.582323s4.749546-10.582323 10.582323-10.582323zm0 0" fill="none" stroke="#212121" stroke-linecap="round" stroke-width="3" transform="matrix(.093759 0 0 .093759 0 20.158175)"/><path d="m137.570196 191.169546c5.874439 0 10.582323 4.749547 10.582323 10.582323s-4.707884 10.582323-10.582323 10.582323c-5.832776 0-10.582323-4.749547-10.582323-10.582323s4.749547-10.582323 10.582323-10.582323zm0 0" fill="none" stroke="#212121" stroke-linecap="round" stroke-width="3" transform="matrix(.093759 0 0 .093759 0 20.158175)"/><path d="m23.816406 10.296875c4.929688 0 8.929688 4 8.929688 8.929687 0 4.933594-4 8.933594-8.929688 8.933594-4.933594 0-8.933594-4-8.933594-8.933594 0-4.929687 4-8.929687 8.933594-8.929687zm0 0" fill="url(#i)"/><path d="m14.886719 19.597656c0 .082032-.003907.167969-.003907.25 0 4.945313 3.984376 8.929688 8.933594 8.929688 4.945313 0 8.929688-3.984375 8.929688-8.929688 0-.082031-.003906-.167968-.003906-.25-.128907 4.832032-4.0625 8.683594-8.925782 8.683594-4.867187 0-8.796875-3.851562-8.929687-8.683594zm0 0" fill-opacity=".235294"/><path d="m14.886719 19.574219c0-.085938-.003907-.167969-.003907-.25 0-4.945313 3.984376-8.929688 8.933594-8.929688 4.945313 0 8.929688 3.984375 8.929688 8.929688 0 .082031-.003906.164062-.003906.25-.128907-4.832031-4.0625-8.683594-8.925782-8.683594-4.867187 0-8.796875 3.851563-8.929687 8.683594zm0 0" fill="#fff" fill-opacity=".588235"/><path d="m254.017409-105.177154c52.578313 0 95.240905 42.662592 95.240905 95.240905 0 52.619975-42.662592 95.282567-95.240905 95.282567-52.619975 0-95.282567-42.662592-95.282567-95.282567 0-52.578313 42.662592-95.240905 95.282567-95.240905zm0 0" fill="none" stroke="#212121" stroke-linecap="round" stroke-width="3" transform="matrix(.093759 0 0 .093759 0 20.158175)"/></svg>

<?xml version="1.0" encoding="UTF-8"?>
<svg xmlns="http://www.w3.org/2000/svg" xmlns:xlink="http://www.w3.org/1999/xlink" width="48pt" height="48pt" viewBox="0 0 48 48" version="1.1">
<defs>
<linearGradient id="linear0" gradientUnits="userSpaceOnUse" x1="254" y1="233.5" x2="254" y2="254.666672" gradientTransform="matrix(0.093759,0,0,0.093759,-0.00000572259,20.158178)">
<stop offset="0" style="stop-color:rgb(0%,0%,0%);stop-opacity:0.27451;"/>
<stop offset="1" style="stop-color:rgb(0%,0%,0%);stop-opacity:0;"/>
</linearGradient>
<radialGradient id="radial0" gradientUnits="userSpaceOnUse" cx="450.908936" cy="189.579361" fx="450.908936" fy="189.579361" r="21.166656" gradientTransform="matrix(0.000000261256,-0.117199,-0.210958,-0.000000152308,73.234562,95.392999)">
<stop offset="0" style="stop-color:rgb(0%,0%,0%);stop-opacity:0.313726;"/>
<stop offset="0.222222" style="stop-color:rgb(0%,0%,0%);stop-opacity:0.27451;"/>
<stop offset="1" style="stop-color:rgb(0%,0%,0%);stop-opacity:0;"/>
</radialGradient>
<radialGradient id="radial1" gradientUnits="userSpaceOnUse" cx="450.908936" cy="189.579361" fx="450.908936" fy="189.579361" r="21.166656" gradientTransform="matrix(-0.000000261256,0.117199,0.210958,0.000000152308,-25.605013,-11.291218)">
<stop offset="0" style="stop-color:rgb(0%,0%,0%);stop-opacity:0.313726;"/>
<stop offset="0.222222" style="stop-color:rgb(0%,0%,0%);stop-opacity:0.27451;"/>
<stop offset="1" style="stop-color:rgb(0%,0%,0%);stop-opacity:0;"/>
</radialGradient>
<radialGradient id="radial2" gradientUnits="userSpaceOnUse" cx="450.908936" cy="189.579361" fx="450.908936" fy="189.579361" r="21.166656" gradientTransform="matrix(-0.000000261256,-0.117199,0.210958,-0.000000152308,-25.605013,95.392999)">
<stop offset="0" style="stop-color:rgb(0%,0%,0%);stop-opacity:0.313726;"/>
<stop offset="0.222222" style="stop-color:rgb(0%,0%,0%);stop-opacity:0.27451;"/>
<stop offset="1" style="stop-color:rgb(0%,0%,0%);stop-opacity:0;"/>
</radialGradient>
<radialGradient id="radial3" gradientUnits="userSpaceOnUse" cx="450.908936" cy="189.579361" fx="450.908936" fy="189.579361" r="21.166656" gradientTransform="matrix(0.000000261256,0.117199,-0.210958,0.000000152308,73.234559,-11.291219)">
<stop offset="0" style="stop-color:rgb(0%,0%,0%);stop-opacity:0.313726;"/>
<stop offset="0.222222" style="stop-color:rgb(0%,0%,0%);stop-opacity:0.27451;"/>
<stop offset="1" style="stop-color:rgb(0%,0%,0%);stop-opacity:0;"/>
</radialGradient>
<linearGradient id="linear1" gradientUnits="userSpaceOnUse" x1="306.916656" y1="-25.791676" x2="305.954559" y2="-141.414581" gradientTransform="matrix(0.113024,0,0,0.326118,-8.78102,50.462022)">
<stop offset="0" style="stop-color:rgb(61.960787%,61.960787%,61.960787%);stop-opacity:1;"/>
<stop offset="1" style="stop-color:rgb(87.843138%,87.843138%,87.843138%);stop-opacity:1;"/>
</linearGradient>
<linearGradient id="linear2" gradientUnits="userSpaceOnUse" x1="254" y1="-105.166656" x2="254" y2="85.333336" gradientTransform="matrix(0.093759,0,0,0.093759,0,20.158175)">
<stop offset="0" style="stop-color:rgb(14.901961%,65.098041%,60.392159%);stop-opacity:1;"/>
<stop offset="1" style="stop-color:rgb(0%,53.725493%,48.235294%);stop-opacity:1;"/>
</linearGradient>
<linearGradient id="linear3" gradientUnits="userSpaceOnUse" x1="254" y1="159.416672" x2="254" y2="191.166672" gradientTransform="matrix(1,0,0,1,0,-21.166668)">
<stop offset="0" style="stop-color:rgb(25.882354%,25.882354%,25.882354%);stop-opacity:1;"/>
<stop offset="1" style="stop-color:rgb(38.039216%,38.039216%,38.039216%);stop-opacity:1;"/>
</linearGradient>
<linearGradient id="linear4" gradientUnits="userSpaceOnUse" x1="254" y1="233.5" x2="254" y2="-168.666656" gradientTransform="matrix(0.093759,0,0,0.093759,0,20.158175)">
<stop offset="0" style="stop-color:rgb(61.960787%,61.960787%,61.960787%);stop-opacity:1;"/>
<stop offset="1" style="stop-color:rgb(87.843138%,87.843138%,87.843138%);stop-opacity:1;"/>
</linearGradient>
</defs>
<g id="surface1">
<path style=" stroke:none;fill-rule:nonzero;fill:url(#linear0);" d="M 13.890625 42.050781 L 33.738281 42.050781 L 33.738281 44.035156 L 13.890625 44.035156 Z M 13.890625 42.050781 "/>
<path style=" stroke:none;fill-rule:nonzero;fill:url(#radial0);" d="M 33.738281 42.050781 L 37.707031 42.050781 L 37.707031 40.066406 L 33.738281 40.066406 Z M 33.738281 42.050781 "/>
<path style=" stroke:none;fill-rule:nonzero;fill:url(#radial1);" d="M 13.890625 42.050781 L 9.921875 42.050781 L 9.921875 44.035156 L 13.890625 44.035156 Z M 13.890625 42.050781 "/>
<path style=" stroke:none;fill-rule:nonzero;fill:url(#radial2);" d="M 13.890625 42.050781 L 9.921875 42.050781 L 9.921875 40.066406 L 13.890625 40.066406 Z M 13.890625 42.050781 "/>
<path style=" stroke:none;fill-rule:nonzero;fill:url(#radial3);" d="M 33.738281 42.050781 L 37.707031 42.050781 L 37.707031 44.035156 L 33.738281 44.035156 Z M 33.738281 42.050781 "/>
<path style=" stroke:none;fill-rule:nonzero;fill:url(#linear1);" d="M 11.90625 4.34375 L 35.722656 4.34375 C 36.816406 4.34375 37.707031 5.234375 37.707031 6.328125 L 37.707031 40.066406 C 37.707031 41.164062 36.816406 42.050781 35.722656 42.050781 L 11.90625 42.050781 C 10.8125 42.050781 9.921875 41.164062 9.921875 40.066406 L 9.921875 6.328125 C 9.921875 5.234375 10.8125 4.34375 11.90625 4.34375 Z M 11.90625 4.34375 "/>
<path style=" stroke:none;fill-rule:nonzero;fill:rgb(0%,0%,0%);fill-opacity:0.196078;" d="M 11.90625 42.050781 C 10.808594 42.050781 9.921875 41.164062 9.921875 40.066406 L 9.921875 39.816406 C 9.921875 40.917969 10.808594 41.804688 11.90625 41.804688 L 35.722656 41.804688 C 36.820312 41.804688 37.707031 40.917969 37.707031 39.816406 L 37.707031 40.066406 C 37.707031 41.164062 36.820312 42.050781 35.722656 42.050781 Z M 11.90625 42.050781 "/>
<path style=" stroke:none;fill-rule:nonzero;fill:rgb(90.196079%,90.196079%,90.196079%);fill-opacity:0.937239;" d="M 11.90625 4.34375 C 10.808594 4.34375 9.921875 5.230469 9.921875 6.328125 L 9.921875 6.578125 C 9.921875 5.476562 10.808594 4.589844 11.90625 4.59375 L 35.722656 4.59375 C 36.820312 4.589844 37.707031 5.476562 37.707031 6.578125 L 37.707031 6.328125 C 37.707031 5.230469 36.820312 4.34375 35.722656 4.34375 Z M 11.90625 4.34375 "/>
<path style=" stroke:none;fill-rule:nonzero;fill:rgb(12.941177%,12.941177%,12.941177%);fill-opacity:1;" d="M 11.90625 4.203125 C 10.734375 4.203125 9.78125 5.152344 9.78125 6.328125 L 9.78125 40.066406 C 9.78125 41.242188 10.734375 42.191406 11.90625 42.191406 L 35.722656 42.191406 C 36.898438 42.191406 37.847656 41.242188 37.847656 40.066406 L 37.847656 6.328125 C 37.847656 5.152344 36.898438 4.203125 35.722656 4.203125 Z M 11.90625 4.484375 L 35.722656 4.484375 C 36.746094 4.484375 37.566406 5.304688 37.566406 6.328125 L 37.566406 40.066406 C 37.566406 41.089844 36.746094 41.910156 35.722656 41.910156 L 11.90625 41.910156 C 10.882812 41.910156 10.0625 41.089844 10.0625 40.066406 L 10.0625 6.328125 C 10.0625 5.304688 10.882812 4.484375 11.90625 4.484375 Z M 11.90625 4.484375 "/>
<path style=" stroke:none;fill-rule:nonzero;fill:url(#linear2);" d="M 23.816406 10.296875 C 28.746094 10.296875 32.746094 14.296875 32.746094 19.226562 C 32.746094 24.160156 28.746094 28.160156 23.816406 28.160156 C 18.882812 28.160156 14.882812 24.160156 14.882812 19.226562 C 14.882812 14.296875 18.882812 10.296875 23.816406 10.296875 Z M 23.816406 10.296875 "/>
<path style="fill-rule:nonzero;fill:url(#linear3);stroke-width:3;stroke-linecap:round;stroke-linejoin:miter;stroke:rgb(12.941177%,12.941177%,12.941177%);stroke-opacity:1;stroke-miterlimit:4;" d="M 158.734842 138.257932 L 349.258314 138.257932 C 355.09109 138.257932 359.840637 143.007479 359.840637 148.840255 L 359.840637 159.422578 C 359.840637 165.255354 355.09109 170.004901 349.258314 170.004901 L 158.734842 170.004901 C 152.902065 170.004901 148.152519 165.255354 148.152519 159.422578 L 148.152519 148.840255 C 148.152519 143.007479 152.902065 138.257932 158.734842 138.257932 Z M 158.734842 138.257932 " transform="matrix(0.093759,0,0,0.093759,0,20.158175)"/>
<path style="fill-rule:nonzero;fill:rgb(74.117649%,74.117649%,74.117649%);fill-opacity:0.392157;stroke-width:2.999999;stroke-linecap:round;stroke-linejoin:miter;stroke:rgb(12.941177%,12.941177%,12.941177%);stroke-opacity:1;stroke-miterlimit:4;" d="M 137.570196 -147.506445 C 143.444635 -147.506445 148.152519 -142.756899 148.152519 -136.924123 C 148.152519 -131.091346 143.444635 -126.3418 137.570196 -126.3418 C 131.73742 -126.3418 126.987873 -131.091346 126.987873 -136.924123 C 126.987873 -142.756899 131.73742 -147.506445 137.570196 -147.506445 Z M 137.570196 -147.506445 " transform="matrix(0.093759,0,0,0.093759,0,20.158175)"/>
<path style="fill-rule:nonzero;fill:rgb(74.117649%,74.117649%,74.117649%);fill-opacity:0.392157;stroke-width:3;stroke-linecap:round;stroke-linejoin:miter;stroke:rgb(12.941177%,12.941177%,12.941177%);stroke-opacity:1;stroke-miterlimit:4;" d="M 370.42296 -147.506445 C 376.255736 -147.506445 381.005282 -142.756899 381.005282 -136.924123 C 381.005282 -131.091346 376.255736 -126.3418 370.42296 -126.3418 C 364.590183 -126.3418 359.840637 -131.091346 359.840637 -136.924123 C 359.840637 -142.756899 364.590183 -147.506445 370.42296 -147.506445 Z M 370.42296 -147.506445 " transform="matrix(0.093759,0,0,0.093759,0,20.158175)"/>
<path style="fill-rule:nonzero;fill:rgb(74.117649%,74.117649%,74.117649%);fill-opacity:0.392157;stroke-width:3;stroke-linecap:round;stroke-linejoin:miter;stroke:rgb(12.941177%,12.941177%,12.941177%);stroke-opacity:1;stroke-miterlimit:4;" d="M 370.42296 191.169546 C 376.255736 191.169546 381.005282 195.919093 381.005282 201.751869 C 381.005282 207.584645 376.255736 212.334192 370.42296 212.334192 C 364.590183 212.334192 359.840637 207.584645 359.840637 201.751869 C 359.840637 195.919093 364.590183 191.169546 370.42296 191.169546 Z M 370.42296 191.169546 " transform="matrix(0.093759,0,0,0.093759,0,20.158175)"/>
<path style="fill-rule:nonzero;fill:rgb(74.117649%,74.117649%,74.117649%);fill-opacity:0.392157;stroke-width:3;stroke-linecap:round;stroke-linejoin:miter;stroke:rgb(12.941177%,12.941177%,12.941177%);stroke-opacity:1;stroke-miterlimit:4;" d="M 137.570196 191.169546 C 143.444635 191.169546 148.152519 195.919093 148.152519 201.751869 C 148.152519 207.584645 143.444635 212.334192 137.570196 212.334192 C 131.73742 212.334192 126.987873 207.584645 126.987873 201.751869 C 126.987873 195.919093 131.73742 191.169546 137.570196 191.169546 Z M 137.570196 191.169546 " transform="matrix(0.093759,0,0,0.093759,0,20.158175)"/>
<path style=" stroke:none;fill-rule:nonzero;fill:url(#linear4);" d="M 23.816406 10.296875 C 28.746094 10.296875 32.746094 14.296875 32.746094 19.226562 C 32.746094 24.160156 28.746094 28.160156 23.816406 28.160156 C 18.882812 28.160156 14.882812 24.160156 14.882812 19.226562 C 14.882812 14.296875 18.882812 10.296875 23.816406 10.296875 Z M 23.816406 10.296875 "/>
<path style=" stroke:none;fill-rule:nonzero;fill:rgb(100%,100%,100%);fill-opacity:0.848387;" d="M 23.816406 10.296875 C 18.867188 10.296875 14.882812 14.28125 14.882812 19.226562 C 14.882812 19.3125 14.886719 19.394531 14.886719 19.476562 C 15.019531 14.644531 18.949219 10.792969 23.816406 10.792969 C 28.679688 10.792969 32.613281 14.644531 32.742188 19.476562 C 32.742188 19.394531 32.746094 19.3125 32.746094 19.226562 C 32.746094 14.28125 28.761719 10.296875 23.816406 10.296875 Z M 23.816406 10.296875 "/>
<path style=" stroke:none;fill-rule:nonzero;fill:rgb(0%,0%,0%);fill-opacity:0.235294;" d="M 23.816406 28.777344 C 18.867188 28.777344 14.882812 24.796875 14.882812 19.847656 C 14.882812 19.765625 14.886719 19.683594 14.886719 19.601562 C 15.019531 24.433594 18.949219 28.28125 23.816406 28.28125 C 28.679688 28.28125 32.613281 24.433594 32.742188 19.601562 C 32.742188 19.683594 32.746094 19.765625 32.746094 19.847656 C 32.746094 24.796875 28.761719 28.777344 23.816406 28.777344 Z M 23.816406 28.777344 "/>
<path style=" stroke:none;fill-rule:nonzero;fill:rgb(12.941177%,12.941177%,12.941177%);fill-opacity:1;" d="M 23.816406 10.183594 C 18.804688 10.183594 14.769531 14.21875 14.769531 19.226562 C 14.769531 24.238281 18.804688 28.273438 23.816406 28.273438 C 28.824219 28.273438 32.859375 24.238281 32.859375 19.226562 C 32.859375 14.21875 28.824219 10.183594 23.816406 10.183594 Z M 23.816406 10.414062 C 28.699219 10.414062 32.628906 14.34375 32.628906 19.226562 C 32.628906 24.113281 28.699219 28.042969 23.816406 28.042969 C 18.929688 28.042969 15 24.113281 15 19.226562 C 15 14.34375 18.929688 10.414062 23.816406 10.414062 Z M 23.816406 10.414062 "/>
</g>
</svg>
